svg/u1f61a.svg

<svg viewBox="0 0 128 128" xmlns="http://www.w3.org/2000/svg">
  <g id="gold">
    <radialGradient id="face_1_" cx="63.6" cy="512.9" gradientTransform="matrix(1 0 0 1 0 -450)" gradientUnits="userSpaceOnUse" r="56.9597">
      <stop offset="0.5" stop-color="#FDE030"/>
      <stop offset="0.92" stop-color="#F7C02B"/>
      <stop offset="1" stop-color="#F4A223"/>
    </radialGradient>
    <path id="face" d="M63.6,118.8c-27.9,0-58-17.5-58-55.9S35.7,7,63.6,7c15.5,0,29.8,5.1,40.4,14.4 c11.5,10.2,17.6,24.6,17.6,41.5s-6.1,31.2-17.6,41.4C93.4,113.6,79,118.8,63.6,118.8z" fill="url(#face_1_)"/>
  </g>
  <g id="facial_expressions">
    <g id="blush">
      <radialGradient id="SVGID_1_" cx="24.2755" cy="-274.454" gradientTransform="matrix(0.98 0 0 -0.93 3.46 -181.12)" gradientUnits="userSpaceOnUse" r="19.4518">
        <stop offset="0" stop-color="#ED7770"/>
        <stop offset="0.08" stop-color="#ED7770" stop-opacity="0.96"/>
        <stop offset="0.22" stop-color="#ED7770" stop-opacity="0.85"/>
        <stop offset="0.39" stop-color="#ED7770" stop-opacity="0.68"/>
        <stop offset="0.59" stop-color="#ED7770" stop-opacity="0.43"/>
        <stop offset="0.81" stop-color="#ED7770" stop-opacity="0.13"/>
        <stop offset="0.9" stop-color="#ED7770" stop-opacity="0"/>
      </radialGradient>
      <circle cx="27.25" cy="74.16" enable-background="new " fill="url(#SVGID_1_)" opacity="0.8" r="17.5"/>
    </g>
    <g id="peepers">
      <path id="left-eye" d="M50.15,59.1L50,58.88l-0.21-0.27c-0.08-0.11-0.16-0.2-0.26-0.29l-0.62-0.62 c-0.25-0.25-0.55-0.52-0.86-0.79c-0.66-0.57-1.4-1.03-2.2-1.39C45.07,55.17,44.22,55,43.37,55H43c-0.1-0.02-0.19-0.02-0.29,0 c-0.18,0.02-0.36,0.05-0.54,0.09c-0.42,0.1-0.82,0.23-1.22,0.39c-0.8,0.36-1.54,0.82-2.2,1.39c-0.54,0.46-1.04,0.95-1.51,1.47 l-0.57,0.64l-0.3,0.34c-1.19,1.4-3.29,1.58-4.69,0.39c-1.07-0.91-1.46-2.39-0.97-3.71l0.11-0.32c0.1-0.31,0.22-0.61,0.35-0.91 c0.48-1.09,1.09-2.11,1.83-3.04c1.75-2.31,4.21-3.99,7-4.79c0.57-0.15,1.15-0.26,1.74-0.34c0.3,0,0.74-0.09,0.87-0.09h0.76 c1.14,0.02,2.27,0.18,3.37,0.47c1.05,0.29,2.06,0.71,3,1.25c1.55,0.9,2.91,2.11,4,3.54c0.42,0.54,0.8,1.1,1.13,1.7 c0.27,0.47,0.51,0.95,0.72,1.44c0.08,0.16,0.15,0.33,0.2,0.5c0,0.13,0.08,0.24,0.11,0.33L56,56c0.57,1.77-0.4,3.67-2.17,4.24 C52.49,60.66,51.02,60.2,50.15,59.1z" fill="#422B0D"/>
      <path id="right-eye" d="M93.48,59.1l-0.18-0.22l-0.21-0.27c-0.08-0.11-0.16-0.2-0.26-0.29l-0.62-0.62 c-0.25-0.25-0.55-0.52-0.86-0.79c-0.66-0.57-1.4-1.03-2.2-1.39C88.38,55.18,87.54,55,86.7,55h-0.41c-0.1-0.02-0.19-0.02-0.29,0 c-0.18,0.02-0.36,0.05-0.54,0.09c-0.42,0.1-0.82,0.23-1.22,0.39c-0.81,0.37-1.57,0.85-2.24,1.43c-0.54,0.46-1.04,0.95-1.52,1.47 L80,59l-0.3,0.34c-1.12,1.46-3.21,1.73-4.67,0.6C73.83,59.02,73.4,57.4,74,56l0.11-0.32c0.1-0.31,0.22-0.61,0.35-0.91 c0.47-1.1,1.09-2.13,1.82-3.08c1.75-2.31,4.21-3.99,7-4.79c0.57-0.15,1.15-0.26,1.74-0.34c0.3,0,0.73-0.09,0.87-0.09h0.76 c1.14,0.02,2.27,0.18,3.37,0.47c1.05,0.29,2.06,0.71,3,1.25c1.55,0.9,2.91,2.11,4,3.54c0.42,0.54,0.8,1.1,1.13,1.7 c0.27,0.47,0.51,0.95,0.72,1.44c0.08,0.16,0.15,0.33,0.2,0.5l0.11,0.33l0.09,0.27c0.57,1.77-0.4,3.66-2.17,4.23 c-1.33,0.43-2.78-0.01-3.65-1.1L93.48,59.1z" fill="#422B0D"/>
    </g>
    <path d="M72.86,84.93c1.71-1.51,2.78-3.6,3-5.87c0.19-3.6-0.73-4.84-1.91-6.41 c-2.71-3.65-10.4-2.78-10.4-2.78c-2,0.08-4.44,1.06-4.15,3.44c0.39,1.35,1.49,2.38,2.87,2.69c3,0.73,7.37,0,7.49,3.09 c0.14,3.46-5.18,2-5.6,5.7s5.6,3.19,5.6,5.71c0,1.93-2,2.26-4.07,2.7c-1.79,0.37-5.23,0.93-5.51,3s0.91,4.57,5.75,3.84 c7.61-1.15,10.17-5.32,10.17-7.88C76.15,89.39,74.96,86.74,72.86,84.93z" fill="#422B0D"/>
    <g id="eyebrows">
      <path d="M47.18,32.61L47.18,32.61c2.31,0,3-3.13,0.53-3.65c-1.92-0.36-3.89-0.42-5.83-0.17 c-5.25,0.59-10.08,3.17-13.5,7.21c-1.57,1.92,1,3.94,2.69,2.51C35.63,34.8,41.3,32.72,47.18,32.61z" fill="#422B0D"/>
    </g>
    <g id="eyebrows-2">
      <path d="M80,33.29L80,33.29c-2.29,0.26-3.27-2.82-0.89-3.58c1.89-0.54,3.86-0.78,5.83-0.71 c5.29,0.07,10.35,2.17,14.14,5.86c1.75,1.76-0.6,4-2.43,2.76C91.74,34.35,85.88,32.82,80,33.29z" fill="#422B0D"/>
    </g>
    <path d="M111.49,29.67c5.33,8.6,8.11,18.84,8.11,30.23c0,16.9-6.1,31.2-17.6,41.4 c-10.6,9.3-25,14.5-40.4,14.5c-18.06,0-37-7.35-48.18-22.94c10.76,17.66,31,25.94,50.18,25.94c15.4,0,29.8-5.2,40.4-14.5 c11.5-10.2,17.6-24.5,17.6-41.4C121.6,50.16,118.13,38.84,111.49,29.67z" fill="#EB8F00"/>
  </g>
  <radialGradient id="SVGID_2_" cx="99.1581" cy="-274.454" gradientTransform="matrix(0.98 0 0 -0.93 3.46 -181.12)" gradientUnits="userSpaceOnUse" r="19.4518">
    <stop offset="0" stop-color="#ED7770"/>
    <stop offset="0.08" stop-color="#ED7770" stop-opacity="0.96"/>
    <stop offset="0.22" stop-color="#ED7770" stop-opacity="0.85"/>
    <stop offset="0.39" stop-color="#ED7770" stop-opacity="0.68"/>
    <stop offset="0.59" stop-color="#ED7770" stop-opacity="0.43"/>
    <stop offset="0.81" stop-color="#ED7770" stop-opacity="0.13"/>
    <stop offset="0.9" stop-color="#ED7770" stop-opacity="0"/>
  </radialGradient>
  <circle cx="100.63" cy="74.16" enable-background="new " fill="url(#SVGID_2_)" opacity="0.8" r="17.5"/>
</svg>

<svg viewBox="0 0 128 128" xmlns="http://www.w3.org/2000/svg">
  <defs>
    <radialGradient id="SVGID_2_" cx="102.688712" cy="-79.701312" gradientTransform="matrix(0.98 0 0 -0.93 0 0)" gradientUnits="userSpaceOnUse" r="19.4518">
      <stop offset="0" stop-color="#ED7770"/>
      <stop offset="0.08" stop-color="#ED7770" stop-opacity="0.96"/>
      <stop offset="0.22" stop-color="#ED7770" stop-opacity="0.85"/>
      <stop offset="0.39" stop-color="#ED7770" stop-opacity="0.68"/>
      <stop offset="0.59" stop-color="#ED7770" stop-opacity="0.43"/>
      <stop offset="0.81" stop-color="#ED7770" stop-opacity="0.13"/>
      <stop offset="0.9" stop-color="#ED7770" stop-opacity="0"/>
    </radialGradient>
    <radialGradient id="face_1_" cx="63.6" cy="62.9" gradientUnits="userSpaceOnUse" r="56.9597">
      <stop offset="0.5" stop-color="#FDE030"/>
      <stop offset="0.92" stop-color="#F7C02B"/>
      <stop offset="1" stop-color="#F4A223"/>
    </radialGradient>
    <radialGradient id="SVGID_1_" cx="27.806112" cy="-79.701312" gradientTransform="matrix(0.98 0 0 -0.93 0 0)" gradientUnits="userSpaceOnUse" r="19.4518">
      <stop offset="0" stop-color="#ED7770"/>
      <stop offset="0.08" stop-color="#ED7770" stop-opacity="0.96"/>
      <stop offset="0.22" stop-color="#ED7770" stop-opacity="0.85"/>
      <stop offset="0.39" stop-color="#ED7770" stop-opacity="0.68"/>
      <stop offset="0.59" stop-color="#ED7770" stop-opacity="0.43"/>
      <stop offset="0.81" stop-color="#ED7770" stop-opacity="0.13"/>
      <stop offset="0.9" stop-color="#ED7770" stop-opacity="0"/>
    </radialGradient>
  </defs>
  <path id="face" d="M63.6,118.8 C35.7,118.8 5.6,101.3 5.6,62.9 C5.6,24.5 35.7,7 63.6,7 C79.1,7 93.4,12.1 104,21.4 C115.5,31.6 121.6,46 121.6,62.9 C121.6,79.8 115.5,94.1 104,104.3 C93.4,113.6 79,118.8 63.6,118.8 Z" fill="url(#face_1_)"/>
  <path d="M44.75,74.16 A17.5 17.5 0 1 1 9.75,74.16 A17.5 17.5 0 1 1 44.75,74.16 Z" fill="url(#SVGID_1_)" opacity="0.8"/>
  <path id="left-eye" d="M50.15,59.1 L50,58.88 L49.79,58.61 C49.71,58.5 49.63,58.41 49.53,58.32 L48.91,57.7 C48.66,57.45 48.36,57.18 48.05,56.91 C47.39,56.34 46.65,55.88 45.85,55.52 C45.07,55.17 44.22,55 43.37,55 L43,55 C42.9,54.98 42.81,54.98 42.71,55 C42.53,55.02 42.35,55.05 42.17,55.09 C41.75,55.19 41.35,55.32 40.95,55.48 C40.15,55.84 39.41,56.3 38.75,56.87 C38.21,57.33 37.71,57.82 37.24,58.34 L36.67,58.98 L36.37,59.32 C35.18,60.72 33.08,60.9 31.68,59.71 C30.61,58.8 30.22,57.32 30.71,56 L30.82,55.68 C30.92,55.37 31.04,55.07 31.17,54.77 C31.65,53.68 32.26,52.66 33,51.73 C34.75,49.42 37.21,47.74 40,46.94 C40.57,46.79 41.15,46.68 41.74,46.6 C42.04,46.6 42.48,46.51 42.61,46.51 L43.37,46.51 C44.51,46.53 45.64,46.69 46.74,46.98 C47.79,47.27 48.8,47.69 49.74,48.23 C51.29,49.13 52.65,50.34 53.74,51.77 C54.16,52.31 54.54,52.87 54.87,53.47 C55.14,53.94 55.38,54.42 55.59,54.91 C55.67,55.07 55.74,55.24 55.79,55.41 C55.79,55.54 55.87,55.65 55.9,55.74 L56,56 C56.57,57.77 55.6,59.67 53.83,60.24 C52.49,60.66 51.02,60.2 50.15,59.1 Z" fill="#422B0D"/>
  <path id="right-eye" d="M93.48,59.1 L93.3,58.88 L93.09,58.61 C93.01,58.5 92.93,58.41 92.83,58.32 L92.21,57.7 C91.96,57.45 91.66,57.18 91.35,56.91 C90.69,56.34 89.95,55.88 89.15,55.52 C88.38,55.18 87.54,55 86.7,55 L86.29,55 C86.19,54.98 86.1,54.98 86,55 C85.82,55.02 85.64,55.05 85.46,55.09 C85.04,55.19 84.64,55.32 84.24,55.48 C83.43,55.85 82.67,56.33 82,56.91 C81.46,57.37 80.96,57.86 80.48,58.38 L80,59 L79.7,59.34 C78.58,60.8 76.49,61.07 75.03,59.94 C73.83,59.02 73.4,57.4 74,56 L74.11,55.68 C74.21,55.37 74.33,55.07 74.46,54.77 C74.93,53.67 75.55,52.64 76.28,51.69 C78.03,49.38 80.49,47.7 83.28,46.9 C83.85,46.75 84.43,46.64 85.02,46.56 C85.32,46.56 85.75,46.47 85.89,46.47 L86.65,46.47 C87.79,46.49 88.92,46.65 90.02,46.94 C91.07,47.23 92.08,47.65 93.02,48.19 C94.57,49.09 95.93,50.3 97.02,51.73 C97.44,52.27 97.82,52.83 98.15,53.43 C98.42,53.9 98.66,54.38 98.87,54.87 C98.95,55.03 99.02,55.2 99.07,55.37 L99.18,55.7 L99.27,55.97 C99.84,57.74 98.87,59.63 97.1,60.2 C95.77,60.63 94.32,60.19 93.45,59.1 L93.48,59.1 Z" fill="#422B0D"/>
  <path d="M72.86,84.93 C74.57,83.42 75.64,81.33 75.86,79.06 C76.05,75.46 75.13,74.22 73.95,72.65 C71.24,69 63.55,69.87 63.55,69.87 C61.55,69.95 59.11,70.93 59.4,73.31 C59.79,74.66 60.89,75.69 62.27,76 C65.27,76.73 69.64,76 69.76,79.09 C69.9,82.55 64.58,81.09 64.16,84.79 C63.74,88.49 69.76,87.98 69.76,90.5 C69.76,92.43 67.76,92.76 65.69,93.2 C63.9,93.57 60.46,94.13 60.18,96.2 C59.9,98.27 61.09,100.77 65.93,100.04 C73.54,98.89 76.1,94.72 76.1,92.16 C76.15,89.39 74.96,86.74 72.86,84.93 Z" fill="#422B0D"/>
  <path d="M47.18,32.61 L47.18,32.61 C49.49,32.61 50.18,29.48 47.71,28.96 C45.79,28.6 43.82,28.54 41.88,28.79 C36.63,29.38 31.8,31.96 28.38,36 C26.81,37.92 29.38,39.94 31.07,38.51 C35.63,34.8 41.3,32.72 47.18,32.61 Z" fill="#422B0D"/>
  <path d="M80,33.29 L80,33.29 C77.71,33.55 76.73,30.47 79.11,29.71 C81,29.17 82.97,28.93 84.94,29 C90.23,29.07 95.29,31.17 99.08,34.86 C100.83,36.62 98.48,38.86 96.65,37.62 C91.74,34.35 85.88,32.82 80,33.29 Z" fill="#422B0D"/>
  <path d="M111.49,29.67 C116.82,38.27 119.6,48.51 119.6,59.9 C119.6,76.8 113.5,91.1 102,101.3 C91.4,110.6 77,115.8 61.6,115.8 C43.54,115.8 24.6,108.45 13.42,92.86 C24.18,110.52 44.42,118.8 63.6,118.8 C79,118.8 93.4,113.6 104,104.3 C115.5,94.1 121.6,79.8 121.6,62.9 C121.6,50.16 118.13,38.84 111.49,29.67 Z" fill="#EB8F00"/>
  <path d="M118.13,74.16 A17.5 17.5 0 1 1 83.13,74.16 A17.5 17.5 0 1 1 118.13,74.16 Z" fill="url(#SVGID_2_)" opacity="0.8"/>
</svg>
